X:1304
T:Barley Bree
P:Barley Cakes
C:Bremner, c. 1757 (Here from Gow 3rd Repository)
R:Jig (4x40) AABAB
B:RSCDS 13-4
Z:Anselm Lingnau <anselm@strathspey.org>
M:6/8
L:1/8
K:G
|:c|"G"B2G B/c/dB|"F"A2=F A/B/cA|"G"B2G B/c/dB|d3 g3|
    "G"B2G B/c/dB|"F"A2=F ABc|"G"dcB "D"cBA|"G"G3 G,3:|
  d|"C"gag "G"fgf|"C"e2d B3|gag "A7"f2g|"D"a3 d3|
    "Am"c2a "G"B2g|"C"ABG "Dm"F>ED|"G"G>AB "D7"AGF|"G"G3 "D.C."G2|]
